src/categories/32/applications-system.svg

<?xml version="1.0" encoding="UTF-8" standalone="no"?>
<svg
   width="32"
   height="32"
   version="1.1"
   viewBox="0 0 32 32"
   id="svg74"
   sodipodi:docname="applications-system.svg"
   inkscape:version="1.1 (c68e22c387, 2021-05-23)"
   xmlns:inkscape="http://www.inkscape.org/namespaces/inkscape"
   xmlns:sodipodi="http://sodipodi.sourceforge.net/DTD/sodipodi-0.dtd"
   xmlns:xlink="http://www.w3.org/1999/xlink"
   xmlns="http://www.w3.org/2000/svg"
   xmlns:svg="http://www.w3.org/2000/svg">
  <sodipodi:namedview
     id="namedview76"
     pagecolor="#ffffff"
     bordercolor="#666666"
     borderopacity="1.0"
     inkscape:pageshadow="2"
     inkscape:pageopacity="0.0"
     inkscape:pagecheckerboard="0"
     showgrid="false"
     inkscape:object-paths="false"
     inkscape:snap-midpoints="true"
     inkscape:snap-smooth-nodes="false"
     inkscape:snap-intersection-paths="false"
     inkscape:zoom="16"
     inkscape:cx="13.4375"
     inkscape:cy="23.75"
     inkscape:window-width="1920"
     inkscape:window-height="1018"
     inkscape:window-x="0"
     inkscape:window-y="32"
     inkscape:window-maximized="1"
     inkscape:current-layer="svg74" />
  <defs
     id="defs34">
    <linearGradient
       inkscape:collect="always"
       id="linearGradient2077">
      <stop
         style="stop-color:#a6aebf;stop-opacity:1"
         offset="0"
         id="stop2073" />
      <stop
         style="stop-color:#7b88a1;stop-opacity:1"
         offset="1"
         id="stop2075" />
    </linearGradient>
    <linearGradient
       inkscape:collect="always"
       id="linearGradient1877">
      <stop
         style="stop-color:#bf616a;stop-opacity:1"
         offset="0"
         id="stop1873" />
      <stop
         style="stop-color:#b48ead;stop-opacity:1"
         offset="1"
         id="stop1875" />
    </linearGradient>
    <linearGradient
       inkscape:collect="always"
       id="linearGradient1549">
      <stop
         style="stop-color:#88c0d0;stop-opacity:1"
         offset="0"
         id="stop1545" />
      <stop
         style="stop-color:#5e81ac;stop-opacity:1"
         offset="1"
         id="stop1547" />
    </linearGradient>
    <radialGradient
       id="radialGradient1279-7"
       cx="16.993"
       cy="17.403"
       r="12.416"
       gradientTransform="matrix(1.0313 0 0 1.0313 -1.4819 -1.6041)"
       gradientUnits="userSpaceOnUse">
      <stop
         stop-color="#d8dee9"
         offset="0"
         id="stop2" />
      <stop
         stop-color="#4c566a"
         stop-opacity=".7"
         offset=".28824"
         id="stop4" />
      <stop
         stop-color="#d8dee9"
         offset=".47676"
         id="stop6" />
      <stop
         stop-color="#2e3440"
         offset=".75178"
         id="stop8" />
      <stop
         stop-color="#d8dee9"
         offset="1"
         id="stop10" />
    </radialGradient>
    <linearGradient
       id="linearGradient1686"
       x1="15.796"
       x2="15.796"
       y1="30.995"
       y2=".99633"
       gradientUnits="userSpaceOnUse">
      <stop
         stop-color="#d8dee9"
         offset="0"
         id="stop13" />
      <stop
         stop-color="#eceff4"
         offset="1"
         id="stop15" />
    </linearGradient>
    <linearGradient
       id="linearGradient3950"
       x1="219.74"
       x2="408.75"
       y1="-208.14"
       y2="18.425"
       gradientTransform="matrix(0.08274,0,0,0.08274,18.987,18.751)"
       gradientUnits="userSpaceOnUse"
       xlink:href="#radialGradient1279-7" />
    <linearGradient
       id="linearGradient3952"
       x1="219.74"
       x2="408.75"
       y1="-208.14"
       y2="18.425"
       gradientTransform="matrix(0.08274,0,0,0.08274,18.98,18.737)"
       gradientUnits="userSpaceOnUse">
      <stop
         stop-color="#eceff4"
         offset="0"
         id="stop19" />
      <stop
         stop-color="#4c566a"
         stop-opacity=".6"
         offset=".28824"
         id="stop21" />
      <stop
         stop-color="#eceff4"
         offset=".47676"
         id="stop23" />
      <stop
         stop-color="#2e3440"
         offset=".75178"
         id="stop25" />
      <stop
         stop-color="#eceff4"
         offset="1"
         id="stop27" />
    </linearGradient>
    <linearGradient
       id="linearGradient3954"
       x1="219.74"
       x2="408.75"
       y1="-208.14"
       y2="18.425"
       gradientTransform="matrix(0.08274,0,0,0.08274,18.98,18.737)"
       gradientUnits="userSpaceOnUse"
       xlink:href="#radialGradient1279-7" />
    <filter
       id="filter910"
       x="-0.078105398"
       y="-0.072132127"
       width="1.1562108"
       height="1.1442643"
       color-interpolation-filters="sRGB">
      <feGaussianBlur
         stdDeviation="0.66757952"
         id="feGaussianBlur31" />
    </filter>
    <linearGradient
       inkscape:collect="always"
       xlink:href="#linearGradient1549"
       id="linearGradient1551"
       x1="26.480007"
       y1="2.8798857"
       x2="2.2699516"
       y2="26.469076"
       gradientUnits="userSpaceOnUse" />
    <linearGradient
       inkscape:collect="always"
       xlink:href="#linearGradient1877"
       id="linearGradient1879"
       x1="29.977077"
       y1="4.7412224"
       x2="18.771338"
       y2="16.987059"
       gradientUnits="userSpaceOnUse" />
    <linearGradient
       inkscape:collect="always"
       xlink:href="#linearGradient2077"
       id="linearGradient2079"
       x1="16.961037"
       y1="17.648531"
       x2="5.6220789"
       y2="29.902122"
       gradientUnits="userSpaceOnUse" />
    <filter
       inkscape:collect="always"
       style="color-interpolation-filters:sRGB"
       id="filter3400"
       x="-0.1029442"
       y="-inf"
       width="1.2058884"
       height="inf">
      <feGaussianBlur
         inkscape:collect="always"
         stdDeviation="0.44145899"
         id="feGaussianBlur3402" />
    </filter>
    <filter
       inkscape:collect="always"
       style="color-interpolation-filters:sRGB"
       id="filter4794"
       x="-0.1029442"
       y="-inf"
       width="1.2058884"
       height="inf">
      <feGaussianBlur
         inkscape:collect="always"
         stdDeviation="0.44145899"
         id="feGaussianBlur4796" />
    </filter>
  </defs>
  <rect
     x="1.0001"
     y="1"
     width="30"
     height="30"
     rx="6.965"
     ry="6.965"
     fill="#eceff4"
     stroke-width="2.0247"
     id="rect36" />
  <path
     id="rect38"
     style="fill:url(#linearGradient1551);stroke-width:2.0247;fill-opacity:1"
     d="M 3.1974579 29.121168 C 1.8435848 27.852095 1.0001 26.045673 1.0001 24.035 L 1.0001 7.9650002 C 1.0001 4.1063901 4.1064901 1 7.9651002 1 L 7.9651002 1 L 24.0351 1 C 26.058773 1 27.875545 1.854427 29.145816 3.223682 " />
  <path
     id="path1070"
     style="fill:url(#linearGradient1879);stroke-width:2.0247;fill-opacity:1"
     d="M 16.172126 16.171937 L 29.145816 3.223682 L 29.145816 3.223682 C 30.297616 4.4652346 31.0001 6.1300633 31.0001 7.9650002 L 31.0001 24.035 C 31.0001 25.870638 30.297079 27.536038 29.144495 28.777742 " />
  <path
     id="path1494"
     style="fill:url(#linearGradient2079);stroke-width:2.0247;fill-opacity:1"
     d="M 29.144495 28.777742 C 27.874285 30.146165 26.058072 31 24.0351 31 L 7.9651002 31 C 6.1171634 31 4.4417536 30.287527 3.1974579 29.121168 L 16.172126 16.171937 " />
  <path
     id="path2545"
     style="fill:url(#linearGradient1551);stroke-width:2.0247;fill-opacity:1"
     d="M 3.1974579 29.121168 C 1.8435848 27.852095 1.0001 26.045673 1.0001 24.035 L 1.0001 7.9650002 C 1.0001 4.1063901 4.1064901 1 7.9651002 1 L 7.9651002 1 L 24.0351 1 C 26.058773 1 27.875545 1.854427 29.145816 3.223682 " />
  <path
     id="path2547"
     style="fill:url(#linearGradient1879);stroke-width:2.0247;fill-opacity:1"
     d="M 16.172126 16.171937 L 29.145816 3.223682 L 29.145816 3.223682 C 30.297616 4.4652346 31.0001 6.1300633 31.0001 7.9650002 L 31.0001 24.035 C 31.0001 25.870638 30.297079 27.536038 29.144495 28.777742 " />
  <path
     id="path2549"
     style="fill:url(#linearGradient2079);stroke-width:2.0247;fill-opacity:1"
     d="M 29.144495 28.777742 C 27.874285 30.146165 26.058072 31 24.0351 31 L 7.9651002 31 C 6.1171634 31 4.4417536 30.287527 3.1974579 29.121168 L 16.172126 16.171937 " />
  <g
     id="g4843"
     transform="translate(0,0.49207306)">
    <g
       id="g3320"
       transform="translate(0.4111098,0.5625)"
       style="opacity:0.6;mix-blend-mode:normal;fill:#2e3440;stroke:#2e3440;filter:url(#filter3400)">
      <path
         style="fill:#2e3440;stroke:#2e3440;stroke-width:1.2;stroke-linecap:round;stroke-linejoin:miter;stroke-miterlimit:4;stroke-dasharray:none;stroke-opacity:1"
         d="M 7.5286904,11.257927 H 23.64909"
         id="path3316" />
      <ellipse
         style="fill:#2e3440;stroke:#2e3440;stroke-width:1.26561;stroke-linecap:round;stroke-linejoin:round;stroke-miterlimit:4;stroke-dasharray:none"
         id="ellipse3318"
         cx="19.085354"
         cy="11.257927"
         rx="1.5"
         ry="1.75" />
    </g>
    <g
       id="g4819">
      <g
         id="g3150"
         transform="translate(0.4111098)"
         style="fill:#434c5e;stroke:#434c5e">
        <path
           style="fill:#434c5e;stroke:#434c5e;stroke-width:1.2;stroke-linecap:round;stroke-linejoin:miter;stroke-miterlimit:4;stroke-dasharray:none;stroke-opacity:1"
           d="M 7.5286904,11.257927 H 23.64909"
           id="path2886" />
        <ellipse
           style="fill:#434c5e;stroke:#434c5e;stroke-width:1.26561;stroke-linecap:round;stroke-linejoin:round;stroke-miterlimit:4;stroke-dasharray:none"
           id="path3044"
           cx="19.085354"
           cy="11.257927"
           rx="1.5"
           ry="1.75" />
      </g>
    </g>
    <g
       id="g4827">
      <g
         id="g3362"
         transform="translate(0.4111098,0.5)"
         style="opacity:0.5;fill:#2e3440;stroke:#2e3440;filter:url(#filter4794)">
        <path
           style="fill:#2e3440;stroke:#2e3440;stroke-width:1.2;stroke-linecap:round;stroke-linejoin:miter;stroke-miterlimit:4;stroke-dasharray:none;stroke-opacity:1"
           d="M 7.5286904,19.257927 H 23.64909"
           id="path3358" />
        <ellipse
           style="fill:#2e3440;stroke:#2e3440;stroke-width:1.26561;stroke-linecap:round;stroke-linejoin:round;stroke-miterlimit:4;stroke-dasharray:none"
           id="ellipse3360"
           cx="11.085354"
           cy="19.257927"
           rx="1.5"
           ry="1.75" />
      </g>
      <g
         id="g3162"
         transform="translate(0.4111098)"
         style="fill:#434c5e;stroke:#434c5e">
        <path
           style="fill:#434c5e;stroke:#434c5e;stroke-width:1.2;stroke-linecap:round;stroke-linejoin:miter;stroke-miterlimit:4;stroke-dasharray:none;stroke-opacity:1"
           d="M 7.5286904,19.257927 H 23.64909"
           id="path3152" />
        <ellipse
           style="fill:#434c5e;stroke:#434c5e;stroke-width:1.26561;stroke-linecap:round;stroke-linejoin:round;stroke-miterlimit:4;stroke-dasharray:none"
           id="ellipse3154"
           cx="11.085354"
           cy="19.257927"
           rx="1.5"
           ry="1.75" />
      </g>
    </g>
  </g>
</svg>

<svg width="32" height="32" version="1.1" viewBox="0 0 32 32" xmlns="http://www.w3.org/2000/svg">
 <defs>
  <linearGradient id="linearGradient1551" x1="26.48" x2="2.27" y1="2.8799" y2="26.469" gradientUnits="userSpaceOnUse">
   <stop stop-color="#88c0d0" offset="0"/>
   <stop stop-color="#5e81ac" offset="1"/>
  </linearGradient>
  <linearGradient id="linearGradient1879" x1="29.977" x2="18.771" y1="4.7412" y2="16.987" gradientUnits="userSpaceOnUse">
   <stop stop-color="#bf616a" offset="0"/>
   <stop stop-color="#b48ead" offset="1"/>
  </linearGradient>
  <linearGradient id="linearGradient2079" x1="16.961" x2="5.6221" y1="17.649" y2="29.902" gradientUnits="userSpaceOnUse">
   <stop stop-color="#a6aebf" offset="0"/>
   <stop stop-color="#7b88a1" offset="1"/>
  </linearGradient>
  <filter id="filter3400" x="-.10294" y="-.48352" width="1.2059" height="1.967" color-interpolation-filters="sRGB">
   <feGaussianBlur stdDeviation="0.44145899"/>
  </filter>
  <filter id="filter4794" x="-.10294" y="-.48352" width="1.2059" height="1.967" color-interpolation-filters="sRGB">
   <feGaussianBlur stdDeviation="0.44145899"/>
  </filter>
 </defs>
 <rect x="1.0001" y="1" width="30" height="30" rx="6.965" ry="6.965" fill="#eceff4" stroke-width="2.0247"/>
 <g stroke-width="2.0247">
  <path d="m3.1975 29.121c-1.3539-1.2691-2.1974-3.0755-2.1974-5.0862v-16.07c0-3.8586 3.1064-6.965 6.965-6.965h16.07c2.0237 0 3.8404 0.85443 5.1107 2.2237" fill="url(#linearGradient1551)"/>
  <path d="m16.172 16.172 12.974-12.948c1.1518 1.2416 1.8543 2.9064 1.8543 4.7413v16.07c0 1.8356-0.70302 3.501-1.8556 4.7427" fill="url(#linearGradient1879)"/>
  <path d="m29.144 28.778c-1.2702 1.3684-3.0864 2.2223-5.1094 2.2223h-16.07c-1.8479 0-3.5233-0.71247-4.7676-1.8788l12.975-12.949" fill="url(#linearGradient2079)"/>
  <path d="m3.1975 29.121c-1.3539-1.2691-2.1974-3.0755-2.1974-5.0862v-16.07c0-3.8586 3.1064-6.965 6.965-6.965h16.07c2.0237 0 3.8404 0.85443 5.1107 2.2237" fill="url(#linearGradient1551)"/>
  <path d="m16.172 16.172 12.974-12.948c1.1518 1.2416 1.8543 2.9064 1.8543 4.7413v16.07c0 1.8356-0.70302 3.501-1.8556 4.7427" fill="url(#linearGradient1879)"/>
  <path d="m29.144 28.778c-1.2702 1.3684-3.0864 2.2223-5.1094 2.2223h-16.07c-1.8479 0-3.5233-0.71247-4.7676-1.8788l12.975-12.949" fill="url(#linearGradient2079)"/>
 </g>
 <g transform="translate(0 .49207)" stroke-linecap="round">
  <g transform="translate(.41111 .5625)" fill="#2e3440" filter="url(#filter3400)" opacity=".6" stroke="#2e3440" style="mix-blend-mode:normal">
   <path d="m7.5287 11.258h16.12" stroke-width="1.2"/>
   <ellipse cx="19.085" cy="11.258" rx="1.5" ry="1.75" stroke-linejoin="round" stroke-width="1.2656"/>
  </g>
  <g transform="translate(.41111)" fill="#434c5e" stroke="#434c5e">
   <path d="m7.5287 11.258h16.12" stroke-width="1.2"/>
   <ellipse cx="19.085" cy="11.258" rx="1.5" ry="1.75" stroke-linejoin="round" stroke-width="1.2656"/>
  </g>
  <g transform="translate(.41111 .5)" fill="#2e3440" filter="url(#filter4794)" opacity=".5" stroke="#2e3440">
   <path d="m7.5287 19.258h16.12" stroke-width="1.2"/>
   <ellipse cx="11.085" cy="19.258" rx="1.5" ry="1.75" stroke-linejoin="round" stroke-width="1.2656"/>
  </g>
  <g transform="translate(.41111)" fill="#434c5e" stroke="#434c5e">
   <path d="m7.5287 19.258h16.12" stroke-width="1.2"/>
   <ellipse cx="11.085" cy="19.258" rx="1.5" ry="1.75" stroke-linejoin="round" stroke-width="1.2656"/>
  </g>
 </g>
</svg>
